X: 2
T: the Quarryman
C: Charlie Sheritt
N: Composed by Charlie Sheritt of Aberdeen, and popularised by Willie Taylor
R: jig
%%slurgraces no
Z: 2015 John Chambers <jc:trillian.mit.edu>
M: 6/8
L: 1/8
K: D
{F}G |\
"D"A2{f}f f2{e}e | e2{e}d d2c |\
"G"B>GB d>cB | "D"A3- A2{F}G |\
"A7"A2{e}e e2f | g2{f}e c2B |
[1 "A7"A2{B}A BAG | "D"F3- F2 :|\
[2 "A7"A2{B}A ABc | "D"d3- d2 |: {c}=c |\
"G"B>cd G2B | d>Bd edB |\
"D"A2{B}A F2A |
d>Ad f>ed |\
"A7"[c2A2]{g}g g2{e}e | e2{c}c c2B |\
[1 "D"A2{f}f f2{e}e | e2{d}d "D7"d2 :|\
[2 "A7"A2{B}A ABc | "D"d3- d2 |]
